!!!OTL: 147. Freylekhs
!!!Genre:	Freylekhs
!!!Mode:	Minor
!!!Listening/dance:	dance
!!!One_Mode:	yes
**kern
*I"P1
*clefG2
*k[b-e-]
*g:
*M2/4
*>A
=1
(16aLL
(8qcc/
16b-J))
8gJ
8dL
8gJ
=2
(16aLL
(8qcc/
16b-J))
8gJ
8dL
8gJ
=3
16aLL
16b-JJ
4cc
24b-LL
24dd
24ccJJ
=4
8b-TL
8gJ
8ggL
8gJ
=5
(16aLL
(8qcc/
16b-J))
8gJ
8dL
8gJ
=6
(16aLL
(8qcc/
16b-J))
8gJ
8dL
8gJ
=7
16aLL
16b-JJ
4cc
24b-LL
24a
24b-JJ
=8
4g
4g
=9:|!
*>B
16ddLL
16dd
16dd
16ddJJ
8ggL
8ddJ
=10
8ddL
16ccL
16ddJJ
8ccTL
8b-J
=11
16ddLL
16dd
16dd
16ddJJ
8ggL
8ddJ
=12
8ddL
16ccL
16ddJJ
8ccTL
8b-J
=13
16b-LL
16cc
16dd
16ccJJ
8b-L
8b-J
=14
8ee-L
16ddL
16ccJJ
8.ddL
16ccJk
=15
16b-LL
16cc
16dd
16ccJJ
8b-L
8b-J
=16
8ccTL
16b-L
16aJJ
4g
=17||
*>C
4.dd
8ee-
=18
8ddL
8dJ
8gL
8b-J
=19
16ddLL
16dd
16dd
16ddJJ
8ee-L
16ddL
16ccJJ
=20
8ddL
8dJ
8gL
8b-J
=21
16ddLL
16dd
16dd
16ddJJ
8ee-L
16ddL
16ccJJ
=22
16ddLL
16dd
16dd
16ddJJ
8ee-L
16ddL
16ccJJ
=23
8ddL
8ddJ
16ccLL
16b-J
8ccJ
=24
4b-
(8qcc#X/
4dd)
==
*-
